lib/assets/icons/svg/outlined-navigation-home.svg

<svg viewBox="0 0 24 24" xmlns="http://www.w3.org/2000/svg">
  <path  d="M 17.2 19.745 L 14.52 19.745 C 13.968 19.745 13.52 19.297 13.52 18.745 L 13.52 16.255 C 13.52 15.031 12.195 14.266 11.135 14.878 C 10.643 15.162 10.34 15.686 10.34 16.255 L 10.34 18.745 C 10.34 19.297 9.892 19.745 9.34 19.745 L 6.81 19.745 C 6.539 19.746 6.279 19.638 6.09 19.445 C 5.914 19.253 5.814 19.004 5.81 18.745 L 5.81 13.075 L 4.51 13.075 C 3.958 13.075 3.51 12.627 3.51 12.075 L 3.51 11.025 C 3.533 10.794 3.608 10.572 3.73 10.375 L 3.84 10.245 L 10.76 4.635 C 11.41 4.129 12.32 4.129 12.97 4.635 L 20.09 10.255 C 20.323 10.454 20.467 10.738 20.49 11.045 L 20.49 12.095 C 20.49 12.647 20.042 13.095 19.49 13.095 L 18.19 13.095 L 18.19 18.745 C 18.19 19.293 17.748 19.739 17.2 19.745 Z M 11.93 13.745 C 13.358 13.75 14.515 14.906 14.52 16.335 L 14.52 18.745 L 17.19 18.745 L 17.19 13.085 C 17.19 12.532 17.638 12.085 18.19 12.085 L 19.51 12.085 L 19.51 11.085 L 12.35 5.415 C 12.058 5.181 11.642 5.181 11.35 5.415 L 4.55 10.965 C 4.546 11.008 4.546 11.051 4.55 11.095 L 4.55 12.095 L 5.82 12.095 C 6.372 12.095 6.82 12.542 6.82 13.095 L 6.82 18.745 L 9.34 18.745 L 9.34 16.255 C 9.351 14.829 10.504 13.675 11.93 13.665 Z"/>
</svg>

<svg xmlns="http://www.w3.org/2000/svg" viewBox="0 0 24 24"><path d="M17.2 19.745h-2.68a1 1 0 0 1-1-1v-2.49a1.59 1.59 0 1 0-3.18 0v2.49a1 1 0 0 1-1 1H6.81a1.002 1.002 0 0 1-.72-.3 1.061 1.061 0 0 1-.28-.7v-5.67h-1.3a1 1 0 0 1-1-1v-1.05a1.52 1.52 0 0 1 .22-.65l.11-.13 6.92-5.61a1.798 1.798 0 0 1 2.21 0l7.12 5.62c.233.199.377.483.4.79v1.05a1 1 0 0 1-1 1h-1.3v5.65a1 1 0 0 1-.99 1zm-5.27-6a2.599 2.599 0 0 1 2.59 2.59v2.41h2.67v-5.66a1 1 0 0 1 1-1h1.32v-1l-7.16-5.67a.8.8 0 0 0-1 0l-6.8 5.55a.706.706 0 0 0 0 .13v1h1.27a1 1 0 0 1 1 1v5.65h2.52v-2.49a2.61 2.61 0 0 1 2.59-2.59z"/></svg>
